X:1
T:Je vais, ie viens, ie me pourmène
T:Claude Goudimel
T:Source : Livre X de 26 chansons nouvelles à 4 parties---Paris---N.du Chemin---1552. Editor : André Vierendeels (17/04/18) Notes : Original clefs : G2, C2, C3, F3 Original note values have been halved Editorial accidentals above the staff Square bracket indicates ligature Editorial correction : original text: "Ie vois"
T:Je vais, ie viens, ie me pourmène
T:©
T:©
T:©
C:Claude Goudimel
Z:©
%%score [ 1 2 [ 3 4 ] ]
L:1/8
Q:1/4=120
M:2/2
K:F
V:1 treble nm="Soprano" snm="S"
V:2 treble nm="Alto" snm="A"
V:3 treble-8 nm="Tenor 1" snm="T 1"
V:4 treble-8 nm="Tenor 2" snm="T 2"
V:1
 z2 c2 c4 | z2 f2 e2 c2 | f2 e2 d2 c2- | c2 B2 c4 | z2 F2 F2 F2 | G2 F2 F2 E2 | F2 A2 A2 c2 | %7
w: Je vais,|ie viens, ie|me pour- mè- *|* * ne,|ie fais pour|l'a- mour mil- le|pas: ce- luy qui|
 B4 A4 | B2 A2 G4 | G2 G2 G2 G2 | AGAB c2 A2 | B4 G4 | F4 z2 c2 | c2 c2 d4 | d2 f2 f2 e2 | %15
w: ay- me|n'est sans pei-|ne, i'en fe- rois|bien _ _ _ un li-|vre, he-|las! La|nuict u- n'heu-|re ne du- re|
 f2 c2 c2 c2 | d2 B2 A2 G2 | A4 A2 A2 | B2 B2 G4 | FEFG A2 B2- | B2 A4 G2 | A2 d2 c2 B2 | %22
w: pas, pour la pul-|ce qu'ay en l'o-|reil- le, qui|pour mon re-|pos, _ _ _ _ quand|_ _ suis|las, des fois cent|
 A2 G2 G2 F2 | GABG AB c2 | F2 f2 e2 d2 | c2 B2 A2 G2- | G2 F4 E2 | F8 |] %28
w: au lict me re-|veil- * * * * * *|le, des fois cent|au lict me re-|* veil- *|le.|
V:2
 z4 z2 A2 | A4 z2 A2 | A2 c2 B2 A2 | F4 G4 | A2 A,2 B,3 A, | G,2 C2 D2 C2 | A,2 F2 F2 F2 | %7
w: Je|viens, ie|viens, ie me pour-|mè- *|ne, ie fais pour|l'a- mour mil- le|pas: ce- luy qui|
 G4 C2 F2- | F2 E2 D4 | C2 E2 E2 E2 | F3 E/D/ C4 |"^b" F4 E2 C2 | D4 z2 A2 | A2 A2 F2 B2- | %14
w: ay- me n'est|_ sans pei-|ne, i'en fe- rois|bien _ _ un|li- vre, he-|las! La|nuict u- n'heu- re|
 B2 A2 G2 G2 | F2 A2 A2 A2 | F2 G2 F2 D2 | E4 F4 | z2 D2 E2 E2 | D2 D2 F4- | F4 D4 | D2 A2 G2 F2 | %22
w: _ ne du- re|pas, pour la pul-|ce qu'ay en l'o-|reil- le,|qui pour mon|re- pos, quand|_ suis|las, des fois cent|
 E2 C2 D2 F2 | E2 D4 C2- | C2 B,2 C2 D2 | G2 F3 E D2- | D2 B,2 C4 | C8 |] %28
w: au lict me re-|veil- * *|* * le, me|re- veil- * *||le.|
V:3
 z2 f2 f4 | z2 c2 c4- | c2 c2 f2 e2 | dc f4 e2 | f2 c2 d3 c | B2 A2 B2 G2 | F2 c2 c2 c2 | %7
w: Je vais,|ie viens,|_ ie me pour-|mè- * * *|ne, ie fais pour|l'a- mour mil- le|pas: ce- luy qui|
 d2 d2 f3 e |"^-natural" d2 c4 B2 | c2 c2 c2 c2 | F3 G ABcA | d2 d2 c2 G2 | A4 z2 F2 | F2 F2 B4 | %14
w: ay- me n'est sans|pei- * *|ne, i'en fe- rois|bien _ _ _ _ _|un li- vre, he-|las! La|nuict u- n'heu-|
 G2 A2 B2 c2 | F2 f2 f2 f2 | d2 d2 cA d2- |"^#" d2 c2 d4 | z2 B2 c2 c2 | A4 d4 | c2 BA B2 B2 | %21
w: re ne du- re|pas, pour la pul-|ce qu'ay en l'o- reil-|* * le,|qui pour mon|re- pos,|quand ie _ _ suis|
 A2 f2 e2 d2 | c2 e2 d2 c2- | c2 B2 A2 G2- | G2 F2 G2 f2 | e2 d2 c2 B2 | A2 F2 G4 | F8 |] %28
w: las, des fois cent|au lict me re-|* * * veil-|* * le, des|fois cent au lict|me re- veil-|le.|
V:4
 z4 z2 F2 | F4 z2 F2 | F2 A2 B2 c2 | d4 c2 C2 | F3 E DCB,C | _E2 F2 B,2 C2 | F2 F2 F2 A2 | G4 F4 | %8
w: Je|viens, ie|viens, ie me pour-|mè- ne, ie|fais _ _ _ _ pour|l'a- mour mil- le|pas: ce- luy qui|ay- me|
 B2 c2 G4 | C8 | z2 F2 F2 F2 | B,2 B,2 C2 _E2 | D4 z4 | z8 | z8 | z2 F2 F2 F2 | B2 G2 A2 B2 | %17
w: n'est sans pei-|ne,|i'en fe- rois|bien un li- vr'he-|las!|||pour la pul-|ce qu'ay en l'o-|
 A4 D2 D2 | G2 G2 C4 | D6 CB, | F2 F2 G4 | D4 z4 | z2 c2 B2 A2 | G2 G2 F2 E2 | D4 C2 B,2 | %25
w: reil- le, qui|pour mon re-|pos _ _|quand ie suis|las,|des fois cent|au lict me re-|veil- le, des|
 C2 D2 F2 B,2 | D2 D2 C4 | F8 |] %28
w: fois cent au lict|me re- veil-|le.|

